X: 476
T:Shannonaires' Jig
R:jig
C:Pete Kelly
Z:id:hn-jig-174
M:6/8
N:Posted to the woodenflute mailing list January 2002
K:D
d2F AGF|dAF AFD|~A3 GFE|A2E GFE|
DFA GAB|Adc d2e|fed cBA|1 Gfe d3:|2 Gfe d2e||
~f3 ~a3|~f3 ded|~e3 ~g3|efd cBA|
~f3 ~g3|~a3 bag|fed cBA|1 Gfe d2e:|2 Gfe d3||
<end>
<start>
